X: 38273
T: St. Christopher & The Magpie
R: hornpipe
M: 4/4
K: Eminor
|:EBBA B^cdB|AGFE D2DE|F/E/DFA GFEF|GEED E2ED|
B2BA B^cdB|AGFE ~D2D>E|F/E/DFA GFEF|1 GEED E2E2:|2 GEED E2EF||
|:G2GB BAGA|BedB (3ABA GA|Beef gefa|gedf e2ef|
gafg efde|dBAG ~F2GA|BedB AcBA|1 GEED E2EF:|2 GEED E2E2||

